lib/logo_updates/nrk-logo-nrk-p1-plus-title-below.svg

<svg width="120" height="104" viewBox="0 0 120 104" fill="none" xmlns="http://www.w3.org/2000/svg">
<path d="M0 43V1.00381H13.7802V43H0ZM32.5283 7.68773L40.4532 43H25.3721L15.9092 1.00381H24.3676C26.3072 0.978642 28.1892 1.66237 29.6607 2.92636C31.1347 4.13734 32.1473 5.81844 32.5283 7.68773ZM42.5233 43V1.00381H56.3035V43H42.5233ZM66.7116 16.9743C65.2267 16.9888 63.7656 16.6003 62.4839 15.8504C61.2193 15.1194 60.1688 14.0689 59.438 12.8041C58.6872 11.5222 58.2986 10.0607 58.3134 8.57511C58.2964 7.09861 58.6853 5.64583 59.438 4.3755C60.1766 3.12447 61.2259 2.08533 62.4839 1.35882C63.766 0.609758 65.2269 0.221301 66.7116 0.234844C68.1877 0.218947 69.6399 0.607751 70.9108 1.35882C72.1562 2.09169 73.1943 3.12996 73.9271 4.3755C74.6789 5.64618 75.0677 7.09873 75.0517 8.57511C75.0655 10.0605 74.6769 11.5218 73.9271 12.8041C73.202 14.0633 72.1627 15.113 70.9108 15.8504C69.6398 16.6029 68.1866 16.9918 66.7097 16.9743H66.7116ZM77.1807 43V1.00381H90.9621V43H77.1807ZM108.408 23.9538C108.447 23.9946 108.742 24.4776 109.295 25.403C109.848 26.3283 110.567 27.5114 111.454 28.952C112.341 30.392 113.277 31.9199 114.262 33.536C115.247 35.1521 116.174 36.6803 117.043 38.1202C117.908 39.5602 118.894 41.1867 120 43H104.859C103.912 41.4621 103.055 40.0721 102.286 38.83C101.517 37.5878 100.7 36.2471 99.8334 34.8077C98.9653 33.3698 98.1071 31.9699 97.2587 30.6081C96.4103 29.2464 95.6813 28.0536 95.0714 27.0297C94.459 26.0051 94.0348 25.3149 93.7989 24.9594C93.2139 24.0771 92.8677 23.058 92.7944 22.0019C92.853 20.9883 93.1791 20.0084 93.7397 19.1619C93.9762 18.7676 94.41 18.0675 95.0409 17.062C95.6717 16.0564 96.411 14.8637 97.2587 13.4835C98.1064 12.1034 98.9647 10.6936 99.8334 9.25431C100.702 7.81501 101.519 6.46432 102.286 5.20247C103.056 3.94193 103.914 2.54205 104.859 1.00285H120L108.289 20.1082C107.926 20.6755 107.722 21.3292 107.697 22.0019C107.736 22.7081 107.983 23.3871 108.406 23.9538H108.408Z" fill="white"/>
<path d="M28.4716 66.4429C27.7456 65.3213 26.8135 64.3479 25.7249 63.5743C24.5115 62.7235 23.1635 62.0835 21.7376 61.6815C20.0068 61.2031 18.2168 60.9744 16.4215 61.0023H0V102.998H6.20234V87.9151H16.894C19.3072 87.9521 21.6886 87.3611 23.8052 86.1997C25.8336 85.0751 27.5182 83.4189 28.6783 81.4087C29.9219 79.1905 30.5445 76.6773 30.48 74.1343C30.4852 72.7596 30.3266 71.3891 30.0075 70.052C29.7004 68.7716 29.1812 67.5517 28.4716 66.4429ZM22.9781 79.1896C22.1839 80.4369 21.0157 81.4001 19.6408 81.9411C17.9717 82.5729 16.1959 82.8742 14.4121 82.8282H6.20234V66.1482H15.2401C16.9664 66.0826 18.6845 66.4166 20.2609 67.1242C21.5149 67.7313 22.5402 68.7269 23.1848 69.9633C23.8675 71.3504 24.202 72.8833 24.1594 74.4291C24.2271 76.0963 23.8173 77.7481 22.9781 79.1896Z" fill="white"/>
<path d="M43.0902 62.3921C42.2435 62.8456 41.4168 63.2692 40.6102 63.6629C39.8036 64.0566 38.9865 64.4509 38.1588 64.8458C37.3319 65.2402 36.4854 65.5961 35.619 65.9106C34.7527 66.2251 33.8262 66.5425 32.8417 66.857L34.1423 71.8846C35.3237 71.5297 36.3965 71.1749 37.3606 70.82C38.3059 70.4741 39.2324 70.0792 40.1367 69.6369C41.0241 69.2045 41.9101 68.7316 42.7948 68.2184L42.8244 68.2007V103H48.9666V61.0041H45.7778C44.8321 61.4754 43.9362 61.938 43.0902 62.3921Z" fill="white"/>
<path d="M73.009 79.6924V67.7452H67.8108V79.6924H55.8198V84.3652H67.8108V96.2552H73.009V84.3652H85V79.6924H73.009Z" fill="white"/>
</svg>

<svg xmlns="http://www.w3.org/2000/svg" viewBox="0 0 120 104"><path fill="#fff" d="M0 43V1.004h13.78V43H0ZM32.528 7.688 40.453 43h-15.08L15.908 1.004h8.459a7.965 7.965 0 0 1 5.293 1.922 8.31 8.31 0 0 1 2.867 4.762ZM42.523 43V1.004h13.78V43h-13.78Zm24.189-26.026a8.213 8.213 0 0 1-4.228-1.124 8.336 8.336 0 0 1-3.046-3.046 8.206 8.206 0 0 1-1.125-4.229 8.056 8.056 0 0 1 1.125-4.2 8.437 8.437 0 0 1 3.046-3.016A8.232 8.232 0 0 1 66.712.235a8.083 8.083 0 0 1 4.199 1.124 8.503 8.503 0 0 1 3.016 3.016 8.075 8.075 0 0 1 1.125 4.2 8.226 8.226 0 0 1-1.125 4.23 8.4 8.4 0 0 1-3.016 3.045 8.059 8.059 0 0 1-4.201 1.124h.002ZM77.18 43V1.004h13.781V43H77.181Zm31.227-19.046c.039.04.334.524.887 1.449.553.925 1.272 2.108 2.159 3.549a1143.28 1143.28 0 0 1 5.589 9.168A854.89 854.89 0 0 0 120 43h-15.141c-.947-1.538-1.804-2.928-2.573-4.17a382.214 382.214 0 0 1-2.453-4.022 351.934 351.934 0 0 0-2.574-4.2 213.445 213.445 0 0 1-2.188-3.578 62.753 62.753 0 0 0-1.272-2.07 6.119 6.119 0 0 1-1.005-2.958 5.744 5.744 0 0 1 .946-2.84c.236-.394.67-1.095 1.3-2.1.632-1.006 1.371-2.198 2.219-3.579.847-1.38 1.706-2.79 2.574-4.229.869-1.439 1.686-2.79 2.453-4.052.77-1.26 1.628-2.66 2.573-4.2H120l-11.711 19.106a3.773 3.773 0 0 0-.592 1.894c.039.706.286 1.385.709 1.952h.002ZM28.472 66.443a10.556 10.556 0 0 0-2.747-2.869 13.17 13.17 0 0 0-3.987-1.892 18.854 18.854 0 0 0-5.316-.68H0v41.996h6.202V87.915h10.692a13.923 13.923 0 0 0 6.911-1.715 12.784 12.784 0 0 0 4.873-4.791 14.143 14.143 0 0 0 1.802-7.275 17.305 17.305 0 0 0-.473-4.082c-.307-1.28-.826-2.5-1.535-3.61ZM22.978 79.19a6.992 6.992 0 0 1-3.337 2.751c-1.67.632-3.445.933-5.229.887h-8.21v-16.68h9.038a11.22 11.22 0 0 1 5.02.976 6.484 6.484 0 0 1 2.925 2.84 9.52 9.52 0 0 1 .974 4.465 8.756 8.756 0 0 1-1.18 4.76ZM43.09 62.392c-.847.454-1.673.877-2.48 1.27-.806.395-1.623.789-2.451 1.184-.827.394-1.674.75-2.54 1.065-.866.314-1.793.632-2.777.946l1.3 5.028a56.021 56.021 0 0 0 3.219-1.065c.945-.346 1.871-.74 2.776-1.183a41.714 41.714 0 0 0 2.658-1.419l.03-.017V103h6.142V61.004h-3.19c-.945.471-1.84.934-2.687 1.388ZM73.009 79.692V67.745h-5.198v11.947H55.82v4.673h11.99v11.89h5.199v-11.89H85v-4.673H73.009Z"/></svg>
